remix/Media/hd-line.svg

<svg viewBox="0 0 24 24" fill="currentColor" xmlns="http://www.w3.org/2000/svg"><path d="M4 5V19H20V5H4ZM3 3H21C21.5523 3 22 3.44772 22 4V20C22 20.5523 21.5523 21 21 21H3C2.44772 21 2 20.5523 2 20V4C2 3.44772 2.44772 3 3 3ZM7.5 11.25H9.5V9H11V15H9.5V12.75H7.5V15H6V9H7.5V11.25ZM14.5 10.5V13.5H16C16.2761 13.5 16.5 13.2761 16.5 13V11C16.5 10.7239 16.2761 10.5 16 10.5H14.5ZM13 9H16C17.1046 9 18 9.89543 18 11V13C18 14.1046 17.1046 15 16 15H13V9Z"/></svg>

<svg viewBox="0 0 24 24" xmlns="http://www.w3.org/2000/svg"><path fill="none" d="M0 0h24v24H0Z"/><path d="M4 5v14h16V5H4ZM3 3h18v0c.55 0 1 .44 1 1v16 0c0 .55-.45 1-1 1H3v0c-.56 0-1-.45-1-1V4v0c0-.56.44-1 1-1Zm4.5 8.25h2V9H11v6H9.5v-2.25h-2V15H6V9h1.5v2.25Zm7-.75v3H16v0c.27 0 .5-.23.5-.5v-2 0c0-.28-.23-.5-.5-.5h-1.5ZM13 9h3v0c1.1 0 2 .89 2 2v2 0c0 1.1-.9 2-2 2h-3V9Z"/></svg>
